styles/2/Numix/32/actions/red-document-open.svg

<?xml version="1.0" encoding="UTF-8" standalone="no"?>
<svg
   xmlns:dc="http://purl.org/dc/elements/1.1/"
   xmlns:cc="http://creativecommons.org/ns#"
   xmlns:rdf="http://www.w3.org/1999/02/22-rdf-syntax-ns#"
   xmlns:svg="http://www.w3.org/2000/svg"
   xmlns="http://www.w3.org/2000/svg"
   xmlns:sodipodi="http://sodipodi.sourceforge.net/DTD/sodipodi-0.dtd"
   xmlns:inkscape="http://www.inkscape.org/namespaces/inkscape"
   width="32"
   height="32"
   viewBox="0 0 32 32"
   id="svg2"
   version="1.1"
   inkscape:version="0.91 r"
   sodipodi:docname="red-document-open.svg">
  <metadata
     id="metadata28">
    <rdf:RDF>
      <cc:Work
         rdf:about="">
        <dc:format>image/svg+xml</dc:format>
        <dc:type
           rdf:resource="http://purl.org/dc/dcmitype/StillImage" />
      </cc:Work>
    </rdf:RDF>
  </metadata>
  <defs
     id="defs26" />
  <sodipodi:namedview
     pagecolor="#ffffff"
     bordercolor="#666666"
     borderopacity="1"
     objecttolerance="10"
     gridtolerance="10"
     guidetolerance="10"
     inkscape:pageopacity="0"
     inkscape:pageshadow="2"
     inkscape:window-width="1280"
     inkscape:window-height="969"
     id="namedview24"
     showgrid="true"
     inkscape:zoom="8"
     inkscape:cx="3.7438582"
     inkscape:cy="10.023832"
     inkscape:window-x="0"
     inkscape:window-y="0"
     inkscape:window-maximized="1"
     inkscape:current-layer="svg2">
    <inkscape:grid
       type="xygrid"
       id="grid3005" />
  </sodipodi:namedview>
  <path
     style="font-size:medium;font-style:normal;font-variant:normal;font-weight:normal;font-stretch:normal;text-indent:0;text-align:start;text-decoration:none;line-height:normal;letter-spacing:normal;word-spacing:normal;text-transform:none;direction:ltr;block-progression:tb;writing-mode:lr-tb;text-anchor:start;baseline-shift:baseline;color:#000000;fill:#ef5350;fill-opacity:1;fill-rule:nonzero;stroke:none;stroke-width:1;marker:none;visibility:visible;display:inline;overflow:visible;enable-background:accumulate;font-family:Sans;-inkscape-font-specification:Sans"
     d="M 4,4 C 3.5084,4 3,4.473119 3,5 l 0,7.000056 c -0.666667,0 -0.833333,0 -1.5,0 -0.979162,0 -1.5,0.494034 -1.5,1.5 L 0,26.5 C 0,27.531461 0.523069,28 1.5,28 l 28.84375,0 C 31.21572,28 32,27.376781 32,26.5 l 0,-10.999944 c 0,-0.941323 -0.425107,-1.5 -1.5,-1.5 l -2.5,0 L 28,5 C 28,4.473119 27.4916,4 27,4 z"
     id="path3004"
     inkscape:connector-curvature="0"
     sodipodi:nodetypes="ssccssssscccsss" />
  <path
     style="font-size:medium;font-style:normal;font-variant:normal;font-weight:normal;font-stretch:normal;text-indent:0;text-align:start;text-decoration:none;line-height:normal;letter-spacing:normal;word-spacing:normal;text-transform:none;direction:ltr;block-progression:tb;writing-mode:lr-tb;text-anchor:start;baseline-shift:baseline;color:#000000;fill:#000000;fill-opacity:0.32156863;fill-rule:nonzero;stroke:none;stroke-width:1;marker:none;visibility:visible;display:inline;overflow:visible;enable-background:accumulate;font-family:Sans;-inkscape-font-specification:Sans"
     d="M 4,4 C 3.5084,4 3,4.473119 3,5 l 0,7.000167 c -0.686804,0 -0.883535,0 -1.5,0 -0.979162,0 -1.5,0.482986 -1.5,1.5 L 0,26.5 C 0,27.503839 0.500972,28 1.5,28 l 28.84375,0 C 31.21572,28 32,27.376781 32,26.5 l 0,-10.948056 c 0,-1.013983 -0.419084,-1.551777 -1.5,-1.551777 l -2.5,0 L 28,5 C 28,4.473119 27.4916,4 27,4 z m 14,9.000167 0,2 13,0 L 31,27 1,27 1,13.000167 z"
     id="path3784"
     inkscape:connector-curvature="0"
     sodipodi:nodetypes="ssccssssscccsssccccccc" />
  <path
     style="fill:#ffffff"
     d="m 7,6 18,0 0,6 -18,0 z"
     id="path6"
     inkscape:connector-curvature="0" />
  <path
     style="fill:#cccccc"
     inkscape:connector-curvature="0"
     id="path18"
     d="m 9,10 14,0 0,1 -14,0 z" />
  <path
     style="fill:#cccccc"
     inkscape:connector-curvature="0"
     id="path20"
     d="M 9,8 23,8 23,9 9,9 z" />
  <path
     style="fill:#ffffff;fill-opacity:1;fill-rule:evenodd;stroke:none"
     d="m 18,12 7,0 0,2 -6,0 0,-1 c 0,-0.548744 -0.39312,-1 -1,-1 z"
     id="rect3022"
     inkscape:connector-curvature="0"
     sodipodi:nodetypes="ccccsc" />
  <path
     style="fill:#cccccc"
     d="M 18 12 C 18.60688 12 19 12.451256 19 13 L 23 13 L 23 12 L 18 12 z "
     id="path16" />
</svg>

<svg xmlns="http://www.w3.org/2000/svg" viewBox="0 0 32 32">
 <path d="m 4 4 c -0.492 0 -1 0.473 -1 1 l 0 7 c -0.667 0 -0.833 0 -1.5 0 -0.979 0 -1.5 0.494 -1.5 1.5 l 0 13 c 0 1.031 0.523 1.5 1.5 1.5 l 28.844 0 c 0.872 0 1.656 -0.623 1.656 -1.5 l 0 -11 c 0 -0.941 -0.425 -1.5 -1.5 -1.5 l -2.5 0 l 0 -9 c 0 -0.527 -0.508 -1 -1 -1 z" style="visibility:visible;fill:#ef5350;fill-opacity:1;stroke:none;display:inline;color:#000;fill-rule:nonzero"/>
 <path d="m 4 4 c -0.492 0 -1 0.473 -1 1 l 0 7 c -0.687 0 -0.884 0 -1.5 0 -0.979 0 -1.5 0.483 -1.5 1.5 l 0 13 c 0 1 0.501 1.5 1.5 1.5 l 28.844 0 c 0.872 0 1.656 -0.623 1.656 -1.5 l 0 -10.948 c 0 -1.014 -0.419 -1.552 -1.5 -1.552 l -2.5 0 l 0 -9 c 0 -0.527 -0.508 -1 -1 -1 z m 14 9 0 2 13 0 l 0 12 -30 0 0 -14 z" style="visibility:visible;fill:#000;fill-opacity:0.322;stroke:none;display:inline;color:#000;fill-rule:nonzero"/>
 <path d="m 7 6 18 0 0 6 -18 0 z" style="fill:#fff"/>
 <path d="m 9 10 14 0 0 1 -14 0 z" style="fill:#ccc"/>
 <path d="M 9,8 23,8 23,9 9,9 z" style="fill:#ccc"/>
 <path d="m 18 12 7 0 0 2 -6 0 0 -1 c 0 -0.549 -0.393 -1 -1 -1 z" style="fill:#fff;fill-opacity:1;stroke:none;fill-rule:evenodd"/>
 <path d="m 18 12 c 0.607 0 1 0.451 1 1 l 4 0 l 0 -1 l -5 0 z" style="fill:#ccc"/>
</svg>
